img/location.svg

<svg xmlns="http://www.w3.org/2000/svg" width="8" height="12" viewBox="0 0 11 16" fill="#707070">
  <path d="M11 5.68104C10.988 6.72389 10.7338 7.69521 10.2087 8.58214C8.80815 10.9492 7.39972 13.311 5.99268 15.6737C5.732 16.1115 5.25715 16.1081 4.99462 15.6675C3.58758 13.3048 2.16626 10.9506 0.780407 8.57499C-1.20511 5.1713 0.791922 0.727142 4.58103 0.0776846C7.62909 -0.444456 10.4966 1.72183 10.9351 4.88185C10.9719 5.14602 10.9788 5.41449 11 5.68104ZM5.49388 7.99801C6.56609 7.99467 7.42736 7.09821 7.42551 5.98622C7.42367 4.89139 6.54813 3.9935 5.48697 3.99922C4.42306 4.00494 3.56455 4.89902 3.56409 6.00195C3.56409 7.09916 4.43641 8.00135 5.49388 7.99801Z"/>
</svg>

<svg xmlns="http://www.w3.org/2000/svg" width="8" height="12" viewBox="0 0 11 16" fill="#707070"><path d="M11 5.681c-.012 1.043-.266 2.014-.791 2.901-1.4 2.367-2.81 4.729-4.216 7.092-.261.438-.736.434-.998-.006C3.588 13.305 2.166 10.95.78 8.575-1.205 5.171.792.727 4.581.078c3.048-.522 5.916 1.644 6.354 4.804.037.264.044.532.065.799zM5.494 7.998c1.072-.003 1.933-.9 1.932-2.012C7.424 4.891 6.548 3.994 5.487 4c-1.064.006-1.922.9-1.923 2.003 0 1.097.872 2 1.93 1.996z"/></svg>
